src/assets/Imgs/profile/level.svg

<svg width="19" height="19" viewBox="0 0 19 19" fill="none" xmlns="http://www.w3.org/2000/svg">
<g id="Frame">
<path id="Vector" d="M17.0001 4.78701V11.972C17.0001 14.042 15.3201 15.722 13.2501 15.722H5.75005C5.40505 15.722 5.07505 15.677 4.75255 15.587C4.28755 15.4595 4.13755 14.867 4.48255 14.522L12.4551 6.54951C12.6201 6.38451 12.8676 6.34701 13.1001 6.39201C13.3401 6.43701 13.6026 6.36951 13.7901 6.18951L15.7176 4.25451C16.4226 3.54951 17.0001 3.78201 17.0001 4.78701Z" fill="#5200FF"/>
<path id="Vector_2" opacity="0.4" d="M11.48 6.02453L3.6275 13.877C3.2675 14.237 2.6675 14.147 2.4275 13.697C2.15 13.187 2 12.5945 2 11.972V4.78703C2 3.78203 2.5775 3.54953 3.2825 4.25453L5.2175 6.19703C5.51 6.48203 5.99 6.48203 6.2825 6.19703L8.9675 3.50453C9.26 3.21203 9.74 3.21203 10.0325 3.50453L11.4875 4.95953C11.7725 5.25203 11.7725 5.73203 11.48 6.02453Z" fill="#5200FF"/>
</g>
</svg>

<svg fill="none" height="19" viewBox="0 0 19 19" width="19" xmlns="http://www.w3.org/2000/svg"><g fill="#5200ff"><path d="m17.0001 4.78701v7.18499c0 2.07-1.68 3.75-3.75 3.75h-7.50005c-.345 0-.675-.045-.9975-.135-.465-.1275-.615-.72-.27-1.065l7.97255-7.97249c.165-.165.4125-.2025.645-.1575.24.045.5025-.0225.69-.2025l1.9275-1.935c.705-.705 1.2825-.4725 1.2825.5325z"/><path d="m11.48 6.02453-7.8525 7.85247c-.36.36-.96.27-1.2-.18-.2775-.51-.4275-1.1025-.4275-1.725v-7.18497c0-1.005.5775-1.2375 1.2825-.5325l1.935 1.9425c.2925.285.7725.285 1.065 0l2.685-2.6925c.2925-.2925.7725-.2925 1.065 0l1.455 1.455c.285.2925.285.7725-.0075 1.065z" opacity=".4"/></g></svg>
